X:31
T:The Bridal Jig   Allan's #31
C:Trad/Anon
B:Allan's Irish Fiddler (pub. Mozart Allen,  Glascow) date unknown
Z:FROM ALLAN'S TO NOTEWORTHY, FROM NOTEWORTHY TO ABC, MIDI AND .TXT BY VINCE
BRENNAN Dec. 2002 (HTTP://WWW.SOSYOURMOM.COM)
I:abc2nwc
M:6/8
L:1/8
K:G
D|G2G BGB|def gfg|ecA dBG|FAG FED|
GFG BGB|def gfg|ecA dBG|FEF G2:|
|:A|Bee edB|def g2a|bag agf|geg fdB|Bee edB|
def g2a|[1bag afa|gee e2:|[2bag agf|g2g gdB|]
